X:927
T:Leaving Lismore
C:Joe Buchanan's Scottish Tome - Page 544.1
I:544 1
Z:Carl Allison
R:Waltz
L:1/8
M:3/4
K:D
D2> E2 F2 | A4 d2 | B2 A2 F2 | A6 | D2> E2 F2 | A4 d2 | B2> A2 F2 | E6 |
D2> E2 F2 | A4 d2 | B2 A2 F2 | A6 | A2 B2 d2 | F4 E2 | FE D4- | D6 |
d2> c2 d2 | B4 A2 | B2 A2 F2 | A6 | d2> c2 d2 | B4 A2 | B2> A2 F2 | E6 |
D2> E2 F2 | A4 d2 | B2 A2 F2 | A6 | A2> B2 d2 | F4 E2 | FE D4- | D6 |]

